X:1
T:Tenderly
T:Tenderly
T:Walter Gross
T:Jack Lawrence
C:Walter Gross
Z:Jack Lawrence
%%score 1 2
L:1/8
Q:1/4=60
M:4/4
K:Eb
V:1 bass nm="Trombone" snm="Tbn."
V:2 perc nm="Drumset" snm="D. Set"
K:none
I:percmap F F 36 normal
I:percmap ^f f 51 x
I:percmap ^g g 42 x
I:percmap c c 40 normal
V:1
"^Often played as a waltz" z B,CE |:"Ebmaj7""^A" D4- DB,CE |"Ab7" D6 B,_G, |"Ebm7" F,8- | %4
w: The eve- ning|breeze _ ca- ressed the|trees ten- der-|ly|
w: The shore was|kissed _ by sea and|mist ten- der-|ly|
"Ab7" F,4 z E,F,A, |"Fm7" G,4- G,E,F,A, |"Db7#11" G,6 E,=B,, |"Ebmaj7" B,,8- | %8
w: _ The trem- bling|trees * em- braced the|breeze ten- der-|ly|
w: _ I can't for-|get _ how two hearts|met breath- less-|ly|
"Gm7b5" B,,4"C7b9" z2 B,,2 |1"Fm7b5""^B" _C,6 B,2 |"Bb7" G,6 B,,2 |"Fm7b5" _C,4 E,2 B,2 | %12
w: _ Then|you and|I came|wan- der- ing|
w: _ Your||||
"Bb7""Bdim7" G,6 F,2 |"Cm7" E,4 G,2 F2 |"F7" D6 F,2 |"Fm7" B,8- |"Bb7" B,4- B,B,CE :|2 %17
w: by, and|lost in a|sigh were|we|_ _ The shore was|
w: |||||
"Fm7b5""^C" =B,,4 E,2 =B,2 ||"Bb7""Bdim7" G,6 F,2 |"Cm7" E,4 G,2 F2 |"F7" D4"F#dim7" z ECD | %21
w: ||||
w: arms op- ened|wide and|closed me in-|side you took my|
"Gm7" B,4-"C7" B,CA,B, |"Fm7" G,4-"Bb7" G,F,A,D, |"Eb6" E,8- |"Fm7""Bb7" !fermata!E,8 |] %25
w: ||||
w: lips, you you took my|love _ so ten- der-|ly|_|
V:2
[K:C] z4 |: [Fc]2"^Change Instr." (3[c-^f] c c c2 [c^g]2 | x8 | x8 | x8 | x8 | x8 | x8 | x8 |1 x8 | %10
 x8 | x8 | x8 | x8 | x8 | x8 | x8 :|2 x8 || x8 | x8 | x8 | x8 | x8 | x8 | x8 |] %25

